images/icons/inst.svg

<svg width="38" height="37" viewBox="0 0 38 37" fill="none" xmlns="http://www.w3.org/2000/svg">
<g clip-path="url(#clip0)">
<path d="M37.9628 10.8781C37.8738 8.91215 37.5473 7.56057 37.0796 6.38942C36.597 5.14626 35.8547 4.03327 34.8821 3.10803C33.9319 2.16839 32.7813 1.43825 31.5193 0.975777C30.3096 0.520358 28.9287 0.20244 26.9096 0.11576C24.8755 0.0217404 24.2297 0 19.0705 0C13.9113 0 13.2655 0.0217404 11.2389 0.10842C9.21978 0.195099 7.83168 0.513299 6.62916 0.968436C5.35212 1.43825 4.20904 2.16105 3.2588 3.10803C2.29377 4.03327 1.54419 5.1536 1.06892 6.38236C0.601194 7.56057 0.274683 8.90481 0.185662 10.8708C0.0891004 12.8514 0.0667725 13.4802 0.0667725 18.5036C0.0667725 23.5271 0.0891004 24.1558 0.178122 26.1291C0.267144 28.0951 0.593944 29.4467 1.06167 30.6178C1.54419 31.861 2.29377 32.974 3.2588 33.8992C4.20904 34.8388 5.35966 35.569 6.62162 36.0315C7.83168 36.4869 9.21224 36.8048 11.2316 36.8915C13.258 36.9784 13.904 36.9999 19.0632 36.9999C24.2224 36.9999 24.8682 36.9784 26.8948 36.8915C28.9139 36.8048 30.302 36.4869 31.5045 36.0315C34.0583 35.0701 36.0774 33.1041 37.0648 30.6178C37.5322 29.4396 37.859 28.0951 37.948 26.1291C38.0371 24.1558 38.0594 23.5271 38.0594 18.5036C38.0594 13.4802 38.0518 12.8514 37.9628 10.8781ZM34.5408 25.9846C34.4591 27.7916 34.1474 28.7673 33.8875 29.4179C33.249 31.0298 31.9351 32.309 30.2797 32.9308C29.6116 33.1837 28.6022 33.4873 26.7536 33.5666C24.7493 33.6536 24.1482 33.675 19.078 33.675C14.0078 33.675 13.3992 33.6536 11.4021 33.5666C9.54629 33.4873 8.54415 33.1837 7.87605 32.9308C7.05223 32.6343 6.30236 32.1645 5.69371 31.5501C5.06273 30.9501 4.58021 30.2273 4.27574 29.4252C4.01592 28.7747 3.7042 27.7916 3.62272 25.9919C3.53341 24.0404 3.51137 23.4548 3.51137 18.518C3.51137 13.5813 3.53341 12.9886 3.62272 11.0444C3.7042 9.23741 4.01592 8.26163 4.27574 7.61111C4.58021 6.8087 5.06273 6.07884 5.70125 5.48592C6.31715 4.87154 7.05948 4.40172 7.88359 4.10555C8.55169 3.85257 9.56137 3.54905 11.4097 3.46943C13.414 3.38275 14.0154 3.36101 19.0853 3.36101C24.163 3.36101 24.7641 3.38275 26.7611 3.46943C28.617 3.54905 29.6191 3.85257 30.2872 4.10555C31.111 4.40172 31.8609 4.87154 32.4696 5.48592C33.1005 6.0859 33.5831 6.8087 33.8875 7.61111C34.1474 8.26163 34.4591 9.24447 34.5408 11.0444C34.6299 12.996 34.6522 13.5813 34.6522 18.518C34.6522 23.4548 34.6299 24.033 34.5408 25.9846Z" fill="black"/>
<path d="M19.0705 8.99902C13.6813 8.99902 9.30884 13.2562 9.30884 18.5038C9.30884 23.7514 13.6813 28.0086 19.0705 28.0086C24.46 28.0086 28.8322 23.7514 28.8322 18.5038C28.8322 13.2562 24.46 8.99902 19.0705 8.99902ZM19.0705 24.6693C15.5743 24.6693 12.7384 21.9083 12.7384 18.5038C12.7384 15.0993 15.5743 12.3383 19.0705 12.3383C22.567 12.3383 25.4027 15.0993 25.4027 18.5038C25.4027 21.9083 22.567 24.6693 19.0705 24.6693Z" fill="black"/>
<path d="M31.4972 8.62323C31.4972 9.8486 30.4768 10.8422 29.218 10.8422C27.9595 10.8422 26.9391 9.8486 26.9391 8.62323C26.9391 7.39758 27.9595 6.4043 29.218 6.4043C30.4768 6.4043 31.4972 7.39758 31.4972 8.62323Z" fill="black"/>
</g>
<defs>
<clipPath id="clip0">
<rect width="38" height="37" fill="white"/>
</clipPath>
</defs>
</svg>

<svg width="38" height="37" fill="none" xmlns="http://www.w3.org/2000/svg"><g clip-path="url(#a)" fill="#000"><path d="M37.963 10.878c-.09-1.966-.416-3.317-.883-4.489a9.011 9.011 0 0 0-2.198-3.281A9.38 9.38 0 0 0 31.52.976C30.31.52 28.93.202 26.91.116 24.876.022 24.23 0 19.072 0c-5.16 0-5.806.022-7.832.108-2.02.087-3.407.405-4.61.86a9.3 9.3 0 0 0-3.37 2.14 9.09 9.09 0 0 0-2.19 3.274C.6 7.561.275 8.905.186 10.871c-.097 1.98-.12 2.61-.12 7.633s.023 5.652.112 7.625c.09 1.966.416 3.318.884 4.489a9.104 9.104 0 0 0 2.197 3.281c.95.94 2.1 1.67 3.363 2.133 1.21.455 2.59.773 4.61.86 2.026.086 2.672.108 7.831.108 5.16 0 5.805-.022 7.832-.108 2.019-.087 3.407-.405 4.61-.86 2.553-.962 4.572-2.928 5.56-5.414.467-1.178.794-2.523.883-4.489.09-1.973.111-2.602.111-7.625 0-5.024-.007-5.653-.096-7.626zM34.54 25.985c-.082 1.807-.394 2.782-.653 3.433a6.223 6.223 0 0 1-3.608 3.513c-.668.253-1.678.556-3.526.636-2.005.087-2.606.108-7.676.108s-5.679-.021-7.676-.108c-1.856-.08-2.858-.383-3.526-.636a5.866 5.866 0 0 1-2.182-1.38 5.74 5.74 0 0 1-1.418-2.126c-.26-.65-.572-1.633-.653-3.433-.09-1.952-.112-2.537-.112-7.474s.022-5.53.112-7.474c.081-1.807.393-2.782.653-3.433A5.612 5.612 0 0 1 5.7 5.486a5.917 5.917 0 0 1 2.183-1.38c.668-.253 1.677-.557 3.526-.637 2.004-.086 2.605-.108 7.675-.108 5.078 0 5.68.022 7.676.108 1.856.08 2.858.384 3.526.637a5.862 5.862 0 0 1 2.183 1.38c.63.6 1.113 1.323 1.418 2.125.26.65.571 1.633.653 3.433.089 1.952.111 2.537.111 7.474s-.022 5.515-.111 7.467z"/><path d="M19.07 8.999c-5.389 0-9.761 4.257-9.761 9.505 0 5.247 4.372 9.505 9.761 9.505 5.39 0 9.762-4.258 9.762-9.505 0-5.248-4.372-9.505-9.762-9.505zm0 15.67c-3.496 0-6.332-2.76-6.332-6.165 0-3.405 2.836-6.166 6.332-6.166 3.497 0 6.333 2.761 6.333 6.166 0 3.404-2.836 6.165-6.332 6.165zM31.497 8.623c0 1.226-1.02 2.22-2.279 2.22s-2.279-.994-2.279-2.22c0-1.225 1.02-2.219 2.279-2.219s2.28.994 2.28 2.22z"/></g><defs><clipPath id="a"><path fill="#fff" d="M0 0h38v37H0z"/></clipPath></defs></svg>
